actions/scalable/games-config-board.svg

<svg height="24" width="24" xmlns="http://www.w3.org/2000/svg" xmlns:sodipodi="http://sodipodi.sourceforge.net/DTD/sodipodi-0.dtd" xmlns:inkscape="http://www.inkscape.org/namespaces/inkscape">
 <path d="m4 4v16h16v-16h-16zm1 1h2v2h-2v-2zm3 0h2v2h-2v-2zm3 0h2v2h-2v-2zm3 0h2v2h-2v-2zm3 0h2v2h-2v-2zm-12 3h2v2h-2v-2zm3 0h2v2h-2v-2zm3 0h2v2h-2v-2zm3 0h2v2h-2v-2zm3 0h2v2h-2v-2zm-12 3h2v2h-2v-2zm3 0h2v2h-2v-2zm3 0h2v2h-2v-2zm3 0h2v2h-2v-2zm3 0h2v2h-2v-2zm-12 3h2v2h-2v-2zm3 0h2v2h-2v-2zm3 0h2v2h-2v-2zm3 0h2v2h-2v-2zm3 0h2v2h-2v-2zm-12 3h2v2h-2v-2zm3 0h2v2h-2v-2zm3 0h2v2h-2v-2zm3 0h2v2h-2v-2zm3 0h2v2h-2v-2z" fill="#4d4d4d" transform="matrix(1 0 0 1 0 0)"/>
</svg>

<?xml version="1.0" encoding="UTF-8" standalone="no"?>
<!-- Created with Inkscape (http://www.inkscape.org/) -->

<svg
   xmlns:dc="http://purl.org/dc/elements/1.1/"
   xmlns:cc="http://creativecommons.org/ns#"
   xmlns:rdf="http://www.w3.org/1999/02/22-rdf-syntax-ns#"
   xmlns:svg="http://www.w3.org/2000/svg"
   xmlns="http://www.w3.org/2000/svg"
   xmlns:sodipodi="http://sodipodi.sourceforge.net/DTD/sodipodi-0.dtd"
   xmlns:inkscape="http://www.inkscape.org/namespaces/inkscape"
   width="24"
   height="24"
   id="svg3760"
   version="1.1"
   inkscape:version="0.48+devel r"
   sodipodi:docname="games-config-board.svg">
  <defs
     id="defs3762" />
  <sodipodi:namedview
     id="base"
     pagecolor="#ffffff"
     bordercolor="#666666"
     borderopacity="1.0"
     inkscape:pageopacity="0.0"
     inkscape:pageshadow="2"
     inkscape:zoom="17.624739"
     inkscape:cx="3.8659777"
     inkscape:cy="15.128343"
     inkscape:document-units="px"
     inkscape:current-layer="layer1"
     showgrid="true"
     fit-margin-top="0"
     fit-margin-left="0"
     fit-margin-right="0"
     fit-margin-bottom="0"
     inkscape:window-width="1366"
     inkscape:window-height="668"
     inkscape:window-x="-2"
     inkscape:window-y="23"
     inkscape:window-maximized="1"
     inkscape:showpageshadow="false">
    <sodipodi:guide
       position="-1.4433594e-05,24.000012"
       orientation="24,0"
       id="guide4115" />
    <sodipodi:guide
       position="-1.4433594e-05,1.1816406e-05"
       orientation="0,24"
       id="guide4117" />
    <sodipodi:guide
       position="23.999986,1.1816406e-05"
       orientation="-24,0"
       id="guide4119" />
    <sodipodi:guide
       position="23.999986,24.000012"
       orientation="0,-24"
       id="guide4121" />
    <sodipodi:guide
       position="2.9999856,21.000012"
       orientation="18,0"
       id="guide4123" />
    <sodipodi:guide
       position="2.9999856,3.0000118"
       orientation="0,18"
       id="guide4125" />
    <sodipodi:guide
       position="20.999986,3.0000118"
       orientation="-18,0"
       id="guide4127" />
    <sodipodi:guide
       position="20.999986,21.000012"
       orientation="0,-18"
       id="guide4129" />
    <sodipodi:guide
       position="3.9999856,20.000012"
       orientation="16,0"
       id="guide4131" />
    <sodipodi:guide
       position="3.9999856,4.0000118"
       orientation="0,16"
       id="guide4133" />
    <sodipodi:guide
       position="19.999986,4.0000118"
       orientation="-16,0"
       id="guide4135" />
    <sodipodi:guide
       position="19.999986,20.000012"
       orientation="0,-16"
       id="guide4137" />
    <inkscape:grid
       type="xygrid"
       id="grid4139" />
  </sodipodi:namedview>
  <metadata
     id="metadata3765">
    <rdf:RDF>
      <cc:Work
         rdf:about="">
        <dc:format>image/svg+xml</dc:format>
        <dc:type
           rdf:resource="http://purl.org/dc/dcmitype/StillImage" />
        <dc:title />
      </cc:Work>
    </rdf:RDF>
  </metadata>
  <g
     inkscape:label="Capa 1"
     inkscape:groupmode="layer"
     id="layer1"
     transform="translate(-550.28572,-606.6479)">
    <path
       style="opacity:1;fill:#666666;fill-opacity:1;stroke:none"
       d="M 4 4 L 4 20 L 20 20 L 20 4 L 4 4 z M 5 5 L 7 5 L 7 7 L 5 7 L 5 5 z M 8 5 L 10 5 L 10 7 L 8 7 L 8 5 z M 11 5 L 13 5 L 13 7 L 11 7 L 11 5 z M 14 5 L 16 5 L 16 7 L 14 7 L 14 5 z M 17 5 L 19 5 L 19 7 L 17 7 L 17 5 z M 5 8 L 7 8 L 7 10 L 5 10 L 5 8 z M 8 8 L 10 8 L 10 10 L 8 10 L 8 8 z M 11 8 L 13 8 L 13 10 L 11 10 L 11 8 z M 14 8 L 16 8 L 16 10 L 14 10 L 14 8 z M 17 8 L 19 8 L 19 10 L 17 10 L 17 8 z M 5 11 L 7 11 L 7 13 L 5 13 L 5 11 z M 8 11 L 10 11 L 10 13 L 8 13 L 8 11 z M 11 11 L 13 11 L 13 13 L 11 13 L 11 11 z M 14 11 L 16 11 L 16 13 L 14 13 L 14 11 z M 17 11 L 19 11 L 19 13 L 17 13 L 17 11 z M 5 14 L 7 14 L 7 16 L 5 16 L 5 14 z M 8 14 L 10 14 L 10 16 L 8 16 L 8 14 z M 11 14 L 13 14 L 13 16 L 11 16 L 11 14 z M 14 14 L 16 14 L 16 16 L 14 16 L 14 14 z M 17 14 L 19 14 L 19 16 L 17 16 L 17 14 z M 5 17 L 7 17 L 7 19 L 5 19 L 5 17 z M 8 17 L 10 17 L 10 19 L 8 19 L 8 17 z M 11 17 L 13 17 L 13 19 L 11 19 L 11 17 z M 14 17 L 16 17 L 16 19 L 14 19 L 14 17 z M 17 17 L 19 17 L 19 19 L 17 19 L 17 17 z "
       transform="translate(550.28572,606.6479)"
       id="rect4112" />
  </g>
</svg>
